images/icons/thermometer.svg

<svg width="32" height="32" viewBox="0 0 32 32" fill="none" xmlns="http://www.w3.org/2000/svg">
<path d="M19.1889 5.06946C19.1889 3.72496 18.6972 2.43552 17.8221 1.48481C16.9469 0.534102 15.7599 0 14.5222 0C13.2846 0 12.0976 0.534102 11.2224 1.48481C10.3473 2.43552 9.85559 3.72496 9.85559 5.06946V19.8243C8.65922 21.1507 7.99251 22.936 8.00006 24.793C7.99686 25.9823 8.26542 27.1538 8.78166 28.2026C9.29791 29.2514 10.0457 30.1445 10.958 30.802C11.8702 31.4595 12.9185 31.8607 14.0086 31.9697C15.0988 32.0788 16.1969 31.8921 17.2043 31.4266C18.2117 30.9611 19.097 30.2312 19.7809 29.3025C20.4647 28.3737 20.9256 27.2751 21.1223 26.1052C21.319 24.9352 21.2453 23.7306 20.9079 22.5992C20.5704 21.4678 19.9798 20.4451 19.1889 19.6228V5.06946ZM19.3559 24.793C19.3653 25.6725 19.1676 26.5399 18.7815 27.3131C18.3955 28.0862 17.834 28.7393 17.1503 29.2104C16.4665 29.6814 15.6833 29.9549 14.875 30.0047C14.0667 30.0544 13.26 29.879 12.5317 29.4949C11.8033 29.1108 11.1774 28.5308 10.7134 27.8101C10.2494 27.0893 9.96267 26.2517 9.88046 25.3767C9.79825 24.5017 9.92328 23.6185 10.2437 22.8107C10.5641 22.003 11.0692 21.2976 11.7111 20.7616V5.06946C11.7111 4.25955 12.0073 3.48281 12.5345 2.91012C13.0617 2.33743 13.7767 2.01569 14.5222 2.01569C15.2678 2.01569 15.9828 2.33743 16.51 2.91012C17.0372 3.48281 17.3334 4.25955 17.3334 5.06946V20.5701C17.9595 21.0441 18.4706 21.6758 18.8228 22.4113C19.1751 23.1467 19.358 23.964 19.3559 24.793Z" fill="#2D3440"/>
<path d="M15.5335 21.6384V5.14001C15.5335 4.87271 15.4358 4.61637 15.2618 4.42736C15.0878 4.23835 14.8518 4.13217 14.6057 4.13217C14.3597 4.13217 14.1237 4.23835 13.9497 4.42736C13.7757 4.61637 13.678 4.87271 13.678 5.14001V21.6384C13.059 21.8762 12.5372 22.344 12.205 22.9592C11.8728 23.5744 11.7515 24.2974 11.8625 25.0003C11.9736 25.7033 12.3098 26.341 12.8118 26.8007C13.3137 27.2605 13.9492 27.5126 14.6057 27.5126C15.2623 27.5126 15.8977 27.2605 16.3997 26.8007C16.9017 26.341 17.2379 25.7033 17.3489 25.0003C17.46 24.2974 17.3387 23.5744 17.0065 22.9592C16.6742 22.344 16.1525 21.8762 15.5335 21.6384Z" fill="#2D3440"/>
<path d="M26.6667 3.94068H21.1001V5.95637H26.6667V3.94068Z" fill="#2D3440"/>
<path d="M26.6667 7.97206H21.1001V9.98775H26.6667V7.97206Z" fill="#2D3440"/>
<path d="M26.6667 12.0034H21.1001V14.0191H26.6667V12.0034Z" fill="#2D3440"/>
<path d="M26.6667 16.0348H21.1001V18.0505H26.6667V16.0348Z" fill="#2D3440"/>
</svg>

<svg xmlns="http://www.w3.org/2000/svg" width="32" height="32" fill="none" viewBox="0 0 32 32"><path fill="#2D3440" d="M19.189 5.07c0-1.345-.492-2.634-1.367-3.585C16.947.535 15.76 0 14.522 0c-1.237 0-2.424.534-3.3 1.485-.875.95-1.366 2.24-1.366 3.584v14.755C8.659 21.151 7.993 22.936 8 24.793a7.686 7.686 0 0 0 .782 3.41 7.008 7.008 0 0 0 2.176 2.599 6.284 6.284 0 0 0 3.05 1.168 6.144 6.144 0 0 0 3.196-.543 6.705 6.705 0 0 0 2.577-2.125 7.489 7.489 0 0 0 1.341-3.197 7.781 7.781 0 0 0-.214-3.506 7.298 7.298 0 0 0-1.72-2.976V5.069Zm.167 19.723c.01.88-.188 1.747-.575 2.52a5.017 5.017 0 0 1-1.63 1.897 4.495 4.495 0 0 1-2.276.795 4.43 4.43 0 0 1-2.343-.51 4.88 4.88 0 0 1-1.819-1.685 5.44 5.44 0 0 1-.833-2.433 5.563 5.563 0 0 1 .364-2.566 5.125 5.125 0 0 1 1.467-2.05V5.07c0-.81.296-1.586.823-2.159a2.703 2.703 0 0 1 1.988-.894c.746 0 1.46.321 1.988.894.527.573.823 1.35.823 2.16v15.5a5.024 5.024 0 0 1 1.49 1.841 5.49 5.49 0 0 1 .533 2.382Z"/><path fill="#2D3440" d="M15.534 21.638V5.14c0-.267-.098-.524-.272-.713a.892.892 0 0 0-.656-.295.892.892 0 0 0-.656.295 1.054 1.054 0 0 0-.272.713v16.498a2.85 2.85 0 0 0-1.473 1.321A3.246 3.246 0 0 0 11.863 25c.11.703.447 1.341.949 1.8.502.46 1.137.713 1.794.713.656 0 1.292-.253 1.794-.712.502-.46.838-1.098.949-1.8a3.246 3.246 0 0 0-.343-2.042 2.85 2.85 0 0 0-1.473-1.32ZM26.667 3.94H21.1v2.016h5.567V3.941ZM26.667 7.972H21.1v2.016h5.567V7.972ZM26.667 12.003H21.1v2.016h5.567v-2.016ZM26.667 16.035H21.1v2.015h5.567v-2.015Z"/></svg>
